images/background-icon.svg

<svg width="24" height="24" xmlns="http://www.w3.org/2000/svg">
    <g fill-rule="evenodd">
        <path d="M10.248 23.2h-.7888c-.2208 0-.4.1792-.4.4 0 .2208.1792.4.4.4h.7888c.2212 0 .4-.1792.4-.4 0-.2208-.1788-.4-.4-.4M14.9792 23.2h-.7884c-.2212 0-.4.1792-.4.4 0 .2208.1788.4.4.4h.7884c.2212 0 .4-.1792.4-.4 0-.2208-.1788-.4-.4-.4M17.3448 23.2h-.7884c-.2212 0-.4.1792-.4.4 0 .2208.1788.4.4.4h.7884c.2212 0 .4-.1792.4-.4 0-.2208-.1788-.4-.4-.4M12.6136 23.2h-.7884c-.2212 0-.4004.1792-.4004.4 0 .2208.1792.4.4004.4h.7884c.2212 0 .4-.1792.4-.4 0-.2208-.1788-.4-.4-.4M5.2 21.298c.2212 0 .4-.1792.4-.4v-.7888c0-.2208-.1788-.4-.4-.4-.2212 0-.4.1792-.4.4v.7888c0 .2208.1788.4.4.4M19.7104 23.2h-.7884c-.2212 0-.4.1792-.4.4 0 .2208.1788.4.4.4h.7884c.2212 0 .4-.1792.4-.4 0-.2208-.1788-.4-.4-.4M5.6384 22.3676c-.0568-.2136-.276-.3396-.4896-.2844-.2132.0568-.3404.276-.284.4896.0852.3208.2544.6164.4896.8544.078.0796.1816.1192.2848.1192.1016 0 .2028-.038.2808-.1152.1572-.1552.1588-.4084.004-.5656-.1376-.1392-.2364-.3116-.2856-.498M7.8824 23.2h-.7888c-.2208 0-.4.1792-.4.4 0 .2208.1792.4.4.4h.7888c.2212 0 .4-.1792.4-.4 0-.2208-.1788-.4-.4-.4M23.6 12.2248c-.2212 0-.4.1788-.4.4v.7884c0 .2208.1788.4.4.4.2212 0 .4-.1792.4-.4v-.7884c0-.2212-.1788-.4-.4-.4M23.6 16.956c-.2212 0-.4.1792-.4.4v.7884c0 .2212.1788.4.4.4.2212 0 .4-.1788.4-.4v-.7884c0-.2208-.1788-.4-.4-.4M23.6 14.5904c-.2212 0-.4.1792-.4.4v.7884c0 .2212.1788.4.4.4.2212 0 .4-.1788.4-.4v-.7884c0-.2208-.1788-.4-.4-.4M23.6 9.8588c-.2212 0-.4.1792-.4.4v.7888c0 .2208.1788.4.4.4.2212 0 .4-.1792.4-.4v-.7888c0-.2208-.1788-.4-.4-.4M23.6 7.4932c-.2212 0-.4.1792-.4.4v.7888c0 .2208.1788.4.4.4.2212 0 .4-.1792.4-.4v-.7888c0-.2208-.1788-.4-.4-.4M21.6976 5.6c.2212 0 .4-.1792.4-.4 0-.2208-.1788-.4-.4-.4h-.7888c-.2208 0-.4.1792-.4.4 0 .2208.1792.4.4.4h.7888M22.076 23.2h-.7884c-.2212 0-.4.1792-.4.4 0 .2208.1788.4.4.4h.8004l.0056-.4v.4c.2212 0 .3912-.1792.3912-.4 0-.2212-.1876-.4-.4088-.4M23.6 19.3216c-.2212 0-.4.1792-.4.4v.7884c0 .2212.1788.4.4.4.2212 0 .4-.1788.4-.4v-.7884c0-.2208-.1788-.4-.4-.4M23.5456 6.7212c.0352 0 .0708-.0044.106-.0144.2132-.058.3388-.2784.2804-.4912-.088-.3204-.2584-.6148-.4944-.8512-.1564-.1564-.4096-.1564-.5656-.0004-.1568.156-.1568.4092-.0008.5656.1376.1384.2376.3104.2888.4968.0488.178.21.2948.3856.2948M23.6028 21.6872H23.6c-.2196 0-.3984.1772-.4.3972-.0016.1952-.0536.3868-.1504.554-.1112.1912-.046.436.1448.5468.0636.0368.132.0544.2004.0544.138 0 .272-.0716.3468-.1992.1668-.2876.256-.616.2584-.95.0016-.2212-.176-.4016-.3972-.4032M19.3316 4.8H19.2V1.924C19.2.8632 18.3372 0 17.276 0H1.924C.8628 0 0 .8632 0 1.924v15.352C0 18.3368.8628 19.2 1.924 19.2H5.6V5.6h13.7316c.2212 0 .4-.1792.4-.4 0-.2208-.1788-.4-.4-.4zM2 16.8c-.2208 0-.4-.1792-.4-.4 0-.2208.1792-.4.4-.4.2208 0 .4.1792.4.4 0 .2208-.1792.4-.4.4zm0-2.4c-.2208 0-.4-.1792-.4-.4 0-.2208.1792-.4.4-.4.2208 0 .4.1792.4.4 0 .2208-.1792.4-.4.4zM2 12c-.2208 0-.4-.1792-.4-.4 0-.2208.1792-.4.4-.4.2208 0 .4.1792.4.4 0 .2208-.1792.4-.4.4zm0-2.4c-.2208 0-.4-.1792-.4-.4 0-.2208.1792-.4.4-.4.2208 0 .4.1792.4.4 0 .2208-.1792.4-.4.4zm0-2.4c-.2208 0-.4-.1792-.4-.4 0-.2208.1792-.4.4-.4.2208 0 .4.1792.4.4 0 .2208-.1792.4-.4.4zm0-2.4c-.2208 0-.4-.1792-.4-.4 0-.2208.1792-.4.4-.4.2208 0 .4.1792.4.4 0 .2208-.1792.4-.4.4zm0-2.4c-.2208 0-.4-.1792-.4-.4 0-.2208.1792-.4.4-.4.2208 0 .4.1792.4.4 0 .2208-.1792.4-.4.4zM3.2 18c-.2208 0-.4-.1792-.4-.4 0-.2208.1792-.4.4-.4.2208 0 .4.1792.4.4 0 .2208-.1792.4-.4.4zm0-2.4c-.2208 0-.4-.1792-.4-.4 0-.2208.1792-.4.4-.4.2208 0 .4.1792.4.4 0 .2208-.1792.4-.4.4zm0-2.4c-.2208 0-.4-.1792-.4-.4 0-.2208.1792-.4.4-.4.2208 0 .4.1792.4.4 0 .2208-.1792.4-.4.4zm0-2.4c-.2208 0-.4-.1792-.4-.4 0-.2208.1792-.4.4-.4.2208 0 .4.1792.4.4 0 .2208-.1792.4-.4.4zm0-2.4c-.2208 0-.4-.1792-.4-.4 0-.2208.1792-.4.4-.4.2208 0 .4.1792.4.4 0 .2208-.1792.4-.4.4zm0-2.4c-.2208 0-.4-.1792-.4-.4 0-.2208.1792-.4.4-.4.2208 0 .4.1792.4.4 0 .2208-.1792.4-.4.4zm0-2.4c-.2208 0-.4-.1792-.4-.4 0-.2208.1792-.4.4-.4.2208 0 .4.1792.4.4 0 .2208-.1792.4-.4.4zm1.2 1.2c-.2208 0-.4-.1792-.4-.4 0-.2208.1792-.4.4-.4.2208 0 .4.1792.4.4 0 .2208-.1792.4-.4.4zm0-2.4c-.2208 0-.4-.1792-.4-.4 0-.2208.1792-.4.4-.4.2208 0 .4.1792.4.4 0 .2208-.1792.4-.4.4zm1.2 1.2c-.2208 0-.4-.1792-.4-.4 0-.2208.1792-.4.4-.4.2208 0 .4.1792.4.4 0 .2208-.1792.4-.4.4zm1.2-1.2c-.2208 0-.4-.1792-.4-.4 0-.2208.1792-.4.4-.4.2208 0 .4.1792.4.4 0 .2208-.1792.4-.4.4zM8 3.6c-.2208 0-.4-.1792-.4-.4 0-.2208.1792-.4.4-.4.2208 0 .4.1792.4.4 0 .2208-.1792.4-.4.4zm1.2-1.2c-.2208 0-.4-.1792-.4-.4 0-.2208.1792-.4.4-.4.2208 0 .4.1792.4.4 0 .2208-.1792.4-.4.4zm1.2 1.2c-.2208 0-.4-.1792-.4-.4 0-.2208.1792-.4.4-.4.2208 0 .4.1792.4.4 0 .2208-.1792.4-.4.4zm1.2-1.2c-.2208 0-.4-.1792-.4-.4 0-.2208.1792-.4.4-.4.2208 0 .4.1792.4.4 0 .2208-.1792.4-.4.4zm1.2 1.2c-.2208 0-.4-.1792-.4-.4 0-.2208.1792-.4.4-.4.2208 0 .4.1792.4.4 0 .2208-.1792.4-.4.4zM14 2.4c-.2208 0-.4-.1792-.4-.4 0-.2208.1792-.4.4-.4.2208 0 .4.1792.4.4 0 .2208-.1792.4-.4.4zm1.2 1.2c-.2208 0-.4-.1792-.4-.4 0-.2208.1792-.4.4-.4.2208 0 .4.1792.4.4 0 .2208-.1792.4-.4.4zm1.2-1.2c-.2208 0-.4-.1792-.4-.4 0-.2208.1792-.4.4-.4.2208 0 .4.1792.4.4 0 .2208-.1792.4-.4.4zm1.2 1.2c-.2208 0-.4-.1792-.4-.4 0-.2208.1792-.4.4-.4.2208 0 .4.1792.4.4 0 .2208-.1792.4-.4.4z"/>
    </g>
</svg>

<?xml version="1.0" encoding="UTF-8"?>
<svg width="24px" height="24px" viewBox="0 0 24 24" version="1.1" xmlns="http://www.w3.org/2000/svg" xmlns:xlink="http://www.w3.org/1999/xlink">
    <title>Background</title>
    <g id="Themes" stroke="none" stroke-width="1" fill-rule="evenodd">
        <g id="Layout2" transform="translate(-1198.000000, -171.000000)">
            <g id="Group-8" transform="translate(1198.000000, 171.000000)">
                <path d="M10.248,23.2 L9.4592,23.2 C9.2384,23.2 9.0592,23.3792 9.0592,23.6 C9.0592,23.8208 9.2384,24 9.4592,24 L10.248,24 C10.4692,24 10.648,23.8208 10.648,23.6 C10.648,23.3792 10.4692,23.2 10.248,23.2" id="Path"></path>
                <path d="M14.9792,23.2 L14.1908,23.2 C13.9696,23.2 13.7908,23.3792 13.7908,23.6 C13.7908,23.8208 13.9696,24 14.1908,24 L14.9792,24 C15.2004,24 15.3792,23.8208 15.3792,23.6 C15.3792,23.3792 15.2004,23.2 14.9792,23.2" id="Path"></path>
                <path d="M17.3448,23.2 L16.5564,23.2 C16.3352,23.2 16.1564,23.3792 16.1564,23.6 C16.1564,23.8208 16.3352,24 16.5564,24 L17.3448,24 C17.566,24 17.7448,23.8208 17.7448,23.6 C17.7448,23.3792 17.566,23.2 17.3448,23.2" id="Path"></path>
                <path d="M12.6136,23.2 L11.8252,23.2 C11.604,23.2 11.4248,23.3792 11.4248,23.6 C11.4248,23.8208 11.604,24 11.8252,24 L12.6136,24 C12.8348,24 13.0136,23.8208 13.0136,23.6 C13.0136,23.3792 12.8348,23.2 12.6136,23.2" id="Path"></path>
                <path d="M5.2,21.298 C5.4212,21.298 5.6,21.1188 5.6,20.898 L5.6,20.1092 C5.6,19.8884 5.4212,19.7092 5.2,19.7092 C4.9788,19.7092 4.8,19.8884 4.8,20.1092 L4.8,20.898 C4.8,21.1188 4.9788,21.298 5.2,21.298" id="Path"></path>
                <path d="M19.7104,23.2 L18.922,23.2 C18.7008,23.2 18.522,23.3792 18.522,23.6 C18.522,23.8208 18.7008,24 18.922,24 L19.7104,24 C19.9316,24 20.1104,23.8208 20.1104,23.6 C20.1104,23.3792 19.9316,23.2 19.7104,23.2" id="Path"></path>
                <path d="M5.6384,22.3676 C5.5816,22.154 5.3624,22.028 5.1488,22.0832 C4.9356,22.14 4.8084,22.3592 4.8648,22.5728 C4.95,22.8936 5.1192,23.1892 5.3544,23.4272 C5.4324,23.5068 5.536,23.5464 5.6392,23.5464 C5.7408,23.5464 5.842,23.5084 5.92,23.4312 C6.0772,23.276 6.0788,23.0228 5.924,22.8656 C5.7864,22.7264 5.6876,22.554 5.6384,22.3676" id="Path"></path>
                <path d="M7.8824,23.2 L7.0936,23.2 C6.8728,23.2 6.6936,23.3792 6.6936,23.6 C6.6936,23.8208 6.8728,24 7.0936,24 L7.8824,24 C8.1036,24 8.2824,23.8208 8.2824,23.6 C8.2824,23.3792 8.1036,23.2 7.8824,23.2" id="Path"></path>
                <path d="M23.6,12.2248 C23.3788,12.2248 23.2,12.4036 23.2,12.6248 L23.2,13.4132 C23.2,13.634 23.3788,13.8132 23.6,13.8132 C23.8212,13.8132 24,13.634 24,13.4132 L24,12.6248 C24,12.4036 23.8212,12.2248 23.6,12.2248" id="Path"></path>
                <path d="M23.6,16.956 C23.3788,16.956 23.2,17.1352 23.2,17.356 L23.2,18.1444 C23.2,18.3656 23.3788,18.5444 23.6,18.5444 C23.8212,18.5444 24,18.3656 24,18.1444 L24,17.356 C24,17.1352 23.8212,16.956 23.6,16.956" id="Path"></path>
                <path d="M23.6,14.5904 C23.3788,14.5904 23.2,14.7696 23.2,14.9904 L23.2,15.7788 C23.2,16 23.3788,16.1788 23.6,16.1788 C23.8212,16.1788 24,16 24,15.7788 L24,14.9904 C24,14.7696 23.8212,14.5904 23.6,14.5904" id="Path"></path>
                <path d="M23.6,9.8588 C23.3788,9.8588 23.2,10.038 23.2,10.2588 L23.2,11.0476 C23.2,11.2684 23.3788,11.4476 23.6,11.4476 C23.8212,11.4476 24,11.2684 24,11.0476 L24,10.2588 C24,10.038 23.8212,9.8588 23.6,9.8588" id="Path"></path>
                <path d="M23.6,7.4932 C23.3788,7.4932 23.2,7.6724 23.2,7.8932 L23.2,8.682 C23.2,8.9028 23.3788,9.082 23.6,9.082 C23.8212,9.082 24,8.9028 24,8.682 L24,7.8932 C24,7.6724 23.8212,7.4932 23.6,7.4932" id="Path"></path>
                <path d="M21.6976,5.6 C21.9188,5.6 22.0976,5.4208 22.0976,5.2 C22.0976,4.9792 21.9188,4.8 21.6976,4.8 L20.9088,4.8 C20.688,4.8 20.5088,4.9792 20.5088,5.2 C20.5088,5.4208 20.688,5.6 20.9088,5.6 L21.6976,5.6" id="Path"></path>
                <path d="M22.076,23.2 L21.2876,23.2 C21.0664,23.2 20.8876,23.3792 20.8876,23.6 C20.8876,23.8208 21.0664,24 21.2876,24 L22.088,24 L22.0936,23.6 L22.0936,24 C22.3148,24 22.4848,23.8208 22.4848,23.6 C22.4848,23.3788 22.2972,23.2 22.076,23.2" id="Path"></path>
                <path d="M23.6,19.3216 C23.3788,19.3216 23.2,19.5008 23.2,19.7216 L23.2,20.51 C23.2,20.7312 23.3788,20.91 23.6,20.91 C23.8212,20.91 24,20.7312 24,20.51 L24,19.7216 C24,19.5008 23.8212,19.3216 23.6,19.3216" id="Path"></path>
                <path d="M23.5456,6.7212 C23.5808,6.7212 23.6164,6.7168 23.6516,6.7068 C23.8648,6.6488 23.9904,6.4284 23.932,6.2156 C23.844,5.8952 23.6736,5.6008 23.4376,5.3644 C23.2812,5.208 23.028,5.208 22.872,5.364 C22.7152,5.52 22.7152,5.7732 22.8712,5.9296 C23.0088,6.068 23.1088,6.24 23.16,6.4264 C23.2088,6.6044 23.37,6.7212 23.5456,6.7212" id="Path"></path>
                <path d="M23.6028,21.6872 L23.6,21.6872 C23.3804,21.6872 23.2016,21.8644 23.2,22.0844 C23.1984,22.2796 23.1464,22.4712 23.0496,22.6384 C22.9384,22.8296 23.0036,23.0744 23.1944,23.1852 C23.258,23.222 23.3264,23.2396 23.3948,23.2396 C23.5328,23.2396 23.6668,23.168 23.7416,23.0404 C23.9084,22.7528 23.9976,22.4244 24,22.0904 C24.0016,21.8692 23.824,21.6888 23.6028,21.6872" id="Path"></path>
                <path d="M19.3316,4.8 L19.2,4.8 L19.2,1.924 C19.2,0.8632 18.3372,0 17.276,0 L1.924,0 C0.8628,0 -1.02318154e-14,0.8632 -1.02318154e-14,1.924 L-1.02318154e-14,17.276 C-1.02318154e-14,18.3368 0.8628,19.2 1.924,19.2 L5.6,19.2 L5.6,5.6 L19.3316,5.6 C19.5528,5.6 19.7316,5.4208 19.7316,5.2 C19.7316,4.9792 19.5528,4.8 19.3316,4.8 L19.3316,4.8 Z M2,16.8 C1.7792,16.8 1.6,16.6208 1.6,16.4 C1.6,16.1792 1.7792,16 2,16 C2.2208,16 2.4,16.1792 2.4,16.4 C2.4,16.6208 2.2208,16.8 2,16.8 L2,16.8 Z M2,14.4 C1.7792,14.4 1.6,14.2208 1.6,14 C1.6,13.7792 1.7792,13.6 2,13.6 C2.2208,13.6 2.4,13.7792 2.4,14 C2.4,14.2208 2.2208,14.4 2,14.4 L2,14.4 Z M2,12 C1.7792,12 1.6,11.8208 1.6,11.6 C1.6,11.3792 1.7792,11.2 2,11.2 C2.2208,11.2 2.4,11.3792 2.4,11.6 C2.4,11.8208 2.2208,12 2,12 L2,12 Z M2,9.6 C1.7792,9.6 1.6,9.4208 1.6,9.2 C1.6,8.9792 1.7792,8.8 2,8.8 C2.2208,8.8 2.4,8.9792 2.4,9.2 C2.4,9.4208 2.2208,9.6 2,9.6 L2,9.6 Z M2,7.2 C1.7792,7.2 1.6,7.0208 1.6,6.8 C1.6,6.5792 1.7792,6.4 2,6.4 C2.2208,6.4 2.4,6.5792 2.4,6.8 C2.4,7.0208 2.2208,7.2 2,7.2 L2,7.2 Z M2,4.8 C1.7792,4.8 1.6,4.6208 1.6,4.4 C1.6,4.1792 1.7792,4 2,4 C2.2208,4 2.4,4.1792 2.4,4.4 C2.4,4.6208 2.2208,4.8 2,4.8 L2,4.8 Z M2,2.4 C1.7792,2.4 1.6,2.2208 1.6,2 C1.6,1.7792 1.7792,1.6 2,1.6 C2.2208,1.6 2.4,1.7792 2.4,2 C2.4,2.2208 2.2208,2.4 2,2.4 L2,2.4 Z M3.2,18 C2.9792,18 2.8,17.8208 2.8,17.6 C2.8,17.3792 2.9792,17.2 3.2,17.2 C3.4208,17.2 3.6,17.3792 3.6,17.6 C3.6,17.8208 3.4208,18 3.2,18 L3.2,18 Z M3.2,15.6 C2.9792,15.6 2.8,15.4208 2.8,15.2 C2.8,14.9792 2.9792,14.8 3.2,14.8 C3.4208,14.8 3.6,14.9792 3.6,15.2 C3.6,15.4208 3.4208,15.6 3.2,15.6 L3.2,15.6 Z M3.2,13.2 C2.9792,13.2 2.8,13.0208 2.8,12.8 C2.8,12.5792 2.9792,12.4 3.2,12.4 C3.4208,12.4 3.6,12.5792 3.6,12.8 C3.6,13.0208 3.4208,13.2 3.2,13.2 L3.2,13.2 Z M3.2,10.8 C2.9792,10.8 2.8,10.6208 2.8,10.4 C2.8,10.1792 2.9792,10 3.2,10 C3.4208,10 3.6,10.1792 3.6,10.4 C3.6,10.6208 3.4208,10.8 3.2,10.8 L3.2,10.8 Z M3.2,8.4 C2.9792,8.4 2.8,8.2208 2.8,8 C2.8,7.7792 2.9792,7.6 3.2,7.6 C3.4208,7.6 3.6,7.7792 3.6,8 C3.6,8.2208 3.4208,8.4 3.2,8.4 L3.2,8.4 Z M3.2,6 C2.9792,6 2.8,5.8208 2.8,5.6 C2.8,5.3792 2.9792,5.2 3.2,5.2 C3.4208,5.2 3.6,5.3792 3.6,5.6 C3.6,5.8208 3.4208,6 3.2,6 L3.2,6 Z M3.2,3.6 C2.9792,3.6 2.8,3.4208 2.8,3.2 C2.8,2.9792 2.9792,2.8 3.2,2.8 C3.4208,2.8 3.6,2.9792 3.6,3.2 C3.6,3.4208 3.4208,3.6 3.2,3.6 L3.2,3.6 Z M4.4,4.8 C4.1792,4.8 4,4.6208 4,4.4 C4,4.1792 4.1792,4 4.4,4 C4.6208,4 4.8,4.1792 4.8,4.4 C4.8,4.6208 4.6208,4.8 4.4,4.8 L4.4,4.8 Z M4.4,2.4 C4.1792,2.4 4,2.2208 4,2 C4,1.7792 4.1792,1.6 4.4,1.6 C4.6208,1.6 4.8,1.7792 4.8,2 C4.8,2.2208 4.6208,2.4 4.4,2.4 L4.4,2.4 Z M5.6,3.6 C5.3792,3.6 5.2,3.4208 5.2,3.2 C5.2,2.9792 5.3792,2.8 5.6,2.8 C5.8208,2.8 6,2.9792 6,3.2 C6,3.4208 5.8208,3.6 5.6,3.6 L5.6,3.6 Z M6.8,2.4 C6.5792,2.4 6.4,2.2208 6.4,2 C6.4,1.7792 6.5792,1.6 6.8,1.6 C7.0208,1.6 7.2,1.7792 7.2,2 C7.2,2.2208 7.0208,2.4 6.8,2.4 L6.8,2.4 Z M8,3.6 C7.7792,3.6 7.6,3.4208 7.6,3.2 C7.6,2.9792 7.7792,2.8 8,2.8 C8.2208,2.8 8.4,2.9792 8.4,3.2 C8.4,3.4208 8.2208,3.6 8,3.6 L8,3.6 Z M9.2,2.4 C8.9792,2.4 8.8,2.2208 8.8,2 C8.8,1.7792 8.9792,1.6 9.2,1.6 C9.4208,1.6 9.6,1.7792 9.6,2 C9.6,2.2208 9.4208,2.4 9.2,2.4 L9.2,2.4 Z M10.4,3.6 C10.1792,3.6 10,3.4208 10,3.2 C10,2.9792 10.1792,2.8 10.4,2.8 C10.6208,2.8 10.8,2.9792 10.8,3.2 C10.8,3.4208 10.6208,3.6 10.4,3.6 L10.4,3.6 Z M11.6,2.4 C11.3792,2.4 11.2,2.2208 11.2,2 C11.2,1.7792 11.3792,1.6 11.6,1.6 C11.8208,1.6 12,1.7792 12,2 C12,2.2208 11.8208,2.4 11.6,2.4 L11.6,2.4 Z M12.8,3.6 C12.5792,3.6 12.4,3.4208 12.4,3.2 C12.4,2.9792 12.5792,2.8 12.8,2.8 C13.0208,2.8 13.2,2.9792 13.2,3.2 C13.2,3.4208 13.0208,3.6 12.8,3.6 L12.8,3.6 Z M14,2.4 C13.7792,2.4 13.6,2.2208 13.6,2 C13.6,1.7792 13.7792,1.6 14,1.6 C14.2208,1.6 14.4,1.7792 14.4,2 C14.4,2.2208 14.2208,2.4 14,2.4 L14,2.4 Z M15.2,3.6 C14.9792,3.6 14.8,3.4208 14.8,3.2 C14.8,2.9792 14.9792,2.8 15.2,2.8 C15.4208,2.8 15.6,2.9792 15.6,3.2 C15.6,3.4208 15.4208,3.6 15.2,3.6 L15.2,3.6 Z M16.4,2.4 C16.1792,2.4 16,2.2208 16,2 C16,1.7792 16.1792,1.6 16.4,1.6 C16.6208,1.6 16.8,1.7792 16.8,2 C16.8,2.2208 16.6208,2.4 16.4,2.4 L16.4,2.4 Z M17.6,3.6 C17.3792,3.6 17.2,3.4208 17.2,3.2 C17.2,2.9792 17.3792,2.8 17.6,2.8 C17.8208,2.8 18,2.9792 18,3.2 C18,3.4208 17.8208,3.6 17.6,3.6 L17.6,3.6 Z" id="Shape"></path>
            </g>
        </g>
    </g>
</svg>
